X: 1
T: Farewell To The Corncrake
M: 6/8
L: 1/8
R: jig
K: Gmaj
|:A|B2G ABc|dge fdc|B3 cBc|dBd cBA|
B2G- GBc|dge fga|bag fed|cAF G2:|
|:B|c2A F2A|~d3 B2d|cBc Afg|afd gAB|
c2A F2A|~d3 B2d|gbg dBd|1cAF GA:|2cAF G2||
|:B|d2D- DBd|~g3 gBd|Bcc cBc|ded ABc|
d2D- DBd|~g3 gBd|cBc ABc|edF G2:|
|:B|d2g B2g|dag fed|cBc Afg|afd cBc|
d2g B2g|dag fed|cBc ABc|edF G2:|
